packages/calcite-ui-icons/icons/browser-plus-24.svg

<?xml version="1.0" encoding="UTF-8"?><svg id="icons" xmlns="http://www.w3.org/2000/svg" viewBox="0 0 24 24"><defs><style>.cls-1{fill:none;}</style></defs><path d="M21,6h-1v-1h1v1ZM23,3v18h-10v-1h9v-12H7v3h-1v-3H2v8h-1V3h22ZM22,4H2v3h20v-3ZM5.99994,13h-1v5H0v1l4.99994-.00098v5.00098h1v-5.00098h5.00006v-.99902h-5.00006v-5Z"/><rect class="cls-1" x="0" width="24" height="24"/></svg>

<svg xmlns="http://www.w3.org/2000/svg" viewBox="0 0 24 24"><path d="M21 6h-1V5h1v1zm2-3v18H13v-1h9V8H7v3H6V8H2v8H1V3h22zm-1 1H2v3h20V4zM6 13H5v5H0v1l5-.001V24h1v-5.001h5V18H6v-5z"/><path fill="none" d="M0 0h24v24H0z"/></svg>
